public/data/profile-fallback.svg

<svg xmlns="http://www.w3.org/2000/svg" xmlns:xlink="http://www.w3.org/1999/xlink" xml:space="preserve" stroke-miterlimit="10" style="fill-rule:nonzero;clip-rule:evenodd;stroke-linecap:round;stroke-linejoin:round" viewBox="0 0 1060 1060"><defs><linearGradient id="c" x1="179" x2="845" y1="512" y2="512" gradientTransform="translate(-269.091 -108.523) scale(1.56072)" gradientUnits="userSpaceOnUse"><stop offset="0" stop-color="#ffbd59"/><stop offset="1" stop-color="#ff6b11"/></linearGradient><linearGradient id="f" x1="178.274" x2="844.274" y1="366.436" y2="366.436" gradientTransform="translate(-269.091 -108.523) scale(1.56072)" gradientUnits="userSpaceOnUse"><stop offset="0" stop-color="#ffbd59"/><stop offset="1" stop-color="#ff6b11"/></linearGradient><linearGradient id="g" x1="-1.154" x2="664.846" y1="700.221" y2="700.221" gradientTransform="translate(-517.92 -551.131) scale(1.56072)" gradientUnits="userSpaceOnUse"><stop offset="0" stop-color="#ff1148"/><stop offset="1" stop-color="#ee3cff"/></linearGradient><linearGradient id="h" x1="341.43" x2="1007.43" y1="698.728" y2="698.728" gradientTransform="translate(-363.917 -30.52) scale(1.56072)" gradientUnits="userSpaceOnUse"><stop offset="0" stop-color="#00d2ff"/><stop offset="1" stop-color="#2aff75"/></linearGradient><linearGradient id="i" x1="432.009" x2="674.027" y1="653.968" y2="412.524" gradientTransform="translate(114.446 114.446) scale(.78406)" gradientUnits="userSpaceOnUse"><stop offset="0" stop-color="#cacaca"/><stop offset="1" stop-color="#ebebeb"/></linearGradient><path id="a" d="M22 530C22 249.439 249.439 22 530 22c280.561 0 508 227.439 508 508 0 280.561-227.439 508-508 508-280.561 0-508-227.439-508-508Z"/><path id="d" d="M526.62-56.301c-219.954.959-407.267 138.433-482.3 331.777-19.166 73.108-30.761 149.295-33.456 227.768.468 6.099.886 12.216 1.559 18.256-.64.326-1.247.708-1.886 1.039-.09 5.673-.259 11.325-.259 17.02 0 378.406 202.39 709.271 504.649 891.061 1.04-.62 2.15-1.13 3.184-1.75 5.095 3.03 10.387 5.71 15.592 8.57 308.563-180.26 516.017-514.735 516.017-897.881 0-1.24-.06-2.465-.07-3.702-1.93-1.155-3.76-2.444-5.71-3.574 2.25-17.003 3.43-34.322 4.03-51.777-3.53-62.834-12.57-124.172-26.77-183.526C951.54 90.791 756.219-57.301 526.62-56.301Z"/></defs><use xlink:href="#a" fill="none" stroke="#310024" stroke-linecap="butt" stroke-linejoin="miter" stroke-width="40"/><clipPath id="b" clip-rule="nonzero"><use xlink:href="#a"/></clipPath><g clip-path="url(#b)"><path fill="url(#c)" stroke="#310024" stroke-linecap="butt" stroke-linejoin="miter" stroke-width="40" d="M526.62-56.301c-219.954.959-407.267 138.433-482.3 331.777-19.166 73.108-30.761 149.295-33.456 227.768.468 6.099.886 12.216 1.559 18.256-.64.326-1.247.708-1.886 1.039-.09 5.673-.259 11.325-.259 17.02 0 378.406 202.39 709.271 504.649 891.061 1.04-.62 2.15-1.13 3.184-1.75 5.095 3.03 10.387 5.71 15.592 8.57 308.563-180.26 516.017-514.735 516.017-897.881 0-1.24-.06-2.465-.07-3.702-1.93-1.155-3.76-2.444-5.71-3.574 2.25-17.003 3.43-34.322 4.03-51.777-3.53-62.834-12.57-124.172-26.77-183.526C951.54 90.791 756.219-57.301 526.62-56.301Z" opacity=".332"/><path fill="none" stroke="#310024" stroke-linecap="butt" stroke-linejoin="miter" stroke-width="40" d="M526.62-56.301c-219.954.959-407.267 138.433-482.3 331.777-19.166 73.108-30.761 149.295-33.456 227.768.468 6.099.886 12.216 1.559 18.256-.64.326-1.247.708-1.886 1.039-.09 5.673-.259 11.325-.259 17.02 0 378.406 202.39 709.271 504.649 891.061 1.04-.62 2.15-1.13 3.184-1.75 5.095 3.03 10.387 5.71 15.592 8.57 308.563-180.26 516.017-514.735 516.017-897.881 0-1.24-.06-2.465-.07-3.702-1.93-1.155-3.76-2.444-5.71-3.574 2.25-17.003 3.43-34.322 4.03-51.777-3.53-62.834-12.57-124.172-26.77-183.526C951.54 90.791 756.219-57.301 526.62-56.301Z"/><use xlink:href="#d" fill="none" stroke="#310024" stroke-linecap="butt" stroke-linejoin="miter" stroke-width="40"/><clipPath id="e" clip-rule="nonzero"><use xlink:href="#d"/></clipPath><g stroke="#310024" stroke-linecap="butt" stroke-linejoin="miter" stroke-width="40" clip-path="url(#e)"><path fill="url(#f)" d="M9.15 465.647C7.9 178.616 239.571-55.083 526.602-56.333c287.031-1.251 520.728 230.42 521.978 517.451 1.25 287.031-230.416 520.729-517.448 521.981C244.1 984.349 10.402 752.679 9.15 465.647Z"/><path fill="url(#g)" d="M-519.716 543.986c-1.251-287.032 230.42-520.73 517.451-521.981 287.031-1.25 520.731 230.42 521.981 517.451 1.252 287.036-230.42 520.734-517.452 521.984-287.03 1.25-520.729-230.428-521.98-517.454Z"/><path fill="url(#h)" d="M168.965 1062.27c-1.25-287.035 230.421-520.733 517.452-521.984 287.027-1.251 520.733 230.42 521.983 517.454 1.25 287.03-230.416 520.72-517.452 521.97-287.033 1.26-520.731-230.42-521.983-517.44Z"/></g></g><path fill="none" stroke="#310024" stroke-linecap="butt" stroke-linejoin="miter" stroke-width="40" d="M22 530C22 249.439 249.439 22 530 22c280.561 0 508 227.439 508 508 0 280.561-227.439 508-508 508-280.561 0-508-227.439-508-508Z"/><path fill="url(#i)" stroke="#310024" stroke-linecap="butt" stroke-linejoin="miter" stroke-width="40" d="M303.483 530c0-125.102 101.415-226.517 226.517-226.517 125.102 0 226.517 101.415 226.517 226.517 0 125.102-101.415 226.517-226.517 226.517-125.102 0-226.517-101.415-226.517-226.517Z"/></svg>

<?xml version="1.0" encoding="UTF-8" standalone="no"?>
<!DOCTYPE svg PUBLIC "-//W3C//DTD SVG 1.1//EN" "http://www.w3.org/Graphics/SVG/1.1/DTD/svg11.dtd">
<!-- Created with Vectornator (http://vectornator.io/) -->
<svg height="100%" stroke-miterlimit="10" style="fill-rule:nonzero;clip-rule:evenodd;stroke-linecap:round;stroke-linejoin:round;" version="1.1" viewBox="0 0 1060 1060" width="100%" xml:space="preserve" xmlns="http://www.w3.org/2000/svg" xmlns:vectornator="http://vectornator.io" xmlns:xlink="http://www.w3.org/1999/xlink">
<defs>
<path d="M22 530C22 249.439 249.439 22 530 22C810.561 22 1038 249.439 1038 530C1038 810.561 810.561 1038 530 1038C249.439 1038 22 810.561 22 530Z" id="Fill"/>
<linearGradient gradientTransform="matrix(1.56072 0 0 1.56072 -269.091 -108.523)" gradientUnits="userSpaceOnUse" id="LinearGradient" x1="179" x2="845" y1="512" y2="512">
<stop offset="0" stop-color="#ffbd59"/>
<stop offset="1" stop-color="#ff6b11"/>
</linearGradient>
<path d="M526.62-56.301C306.666-55.342 119.353 82.132 44.32 275.476C25.154 348.584 13.559 424.771 10.864 503.244C11.332 509.343 11.75 515.46 12.423 521.5C11.783 521.826 11.176 522.208 10.537 522.539C10.447 528.212 10.278 533.864 10.278 539.559C10.278 917.965 212.668 1248.83 514.927 1430.62C515.967 1430 517.077 1429.49 518.111 1428.87C523.206 1431.9 528.498 1434.58 533.703 1437.44C842.266 1257.18 1049.72 922.705 1049.72 539.559C1049.72 538.319 1049.66 537.094 1049.65 535.857C1047.72 534.702 1045.89 533.413 1043.94 532.283C1046.19 515.28 1047.37 497.961 1047.97 480.506C1044.44 417.672 1035.4 356.334 1021.2 296.98C951.54 90.791 756.219-57.301 526.62-56.301Z" id="Fill_2"/>
<linearGradient gradientTransform="matrix(1.56072 0 0 1.56072 -269.091 -108.523)" gradientUnits="userSpaceOnUse" id="LinearGradient_2" x1="178.274" x2="844.274" y1="366.436" y2="366.436">
<stop offset="0" stop-color="#ffbd59"/>
<stop offset="1" stop-color="#ff6b11"/>
</linearGradient>
<linearGradient gradientTransform="matrix(1.56072 0 0 1.56072 -517.92 -551.131)" gradientUnits="userSpaceOnUse" id="LinearGradient_3" x1="-1.154" x2="664.846" y1="700.221" y2="700.221">
<stop offset="0" stop-color="#ff1148"/>
<stop offset="1" stop-color="#ee3cff"/>
</linearGradient>
<linearGradient gradientTransform="matrix(1.56072 0 0 1.56072 -363.917 -30.5195)" gradientUnits="userSpaceOnUse" id="LinearGradient_4" x1="341.43" x2="1007.43" y1="698.728" y2="698.728">
<stop offset="0" stop-color="#00d2ff"/>
<stop offset="1" stop-color="#2aff75"/>
</linearGradient>
<linearGradient gradientTransform="matrix(0.784064 0 0 0.784064 114.446 114.446)" gradientUnits="userSpaceOnUse" id="LinearGradient_5" x1="432.009" x2="674.027" y1="653.968" y2="412.524">
<stop offset="0" stop-color="#cacaca"/>
<stop offset="1" stop-color="#ebebeb"/>
</linearGradient>
</defs>
<g id="Untitled" vectornator:layerName="Untitled">
<g opacity="1" vectornator:layerName="path">
<use fill="none" opacity="1" stroke="#310024" stroke-linecap="butt" stroke-linejoin="miter" stroke-width="40" vectornator:layerName="path" xlink:href="#Fill"/>
<clipPath clip-rule="nonzero" id="ClipPath">
<use xlink:href="#Fill"/>
</clipPath>
<g clip-path="url(#ClipPath)">
<path d="M526.62-56.301C306.666-55.342 119.353 82.132 44.32 275.476C25.154 348.584 13.559 424.771 10.864 503.244C11.332 509.343 11.75 515.46 12.423 521.5C11.783 521.826 11.176 522.208 10.537 522.539C10.447 528.212 10.278 533.864 10.278 539.559C10.278 917.965 212.668 1248.83 514.927 1430.62C515.967 1430 517.077 1429.49 518.111 1428.87C523.206 1431.9 528.498 1434.58 533.703 1437.44C842.266 1257.18 1049.72 922.705 1049.72 539.559C1049.72 538.319 1049.66 537.094 1049.65 535.857C1047.72 534.702 1045.89 533.413 1043.94 532.283C1046.19 515.28 1047.37 497.961 1047.97 480.506C1044.44 417.672 1035.4 356.334 1021.2 296.98C951.54 90.791 756.219-57.301 526.62-56.301Z" fill="url(#LinearGradient)" fill-rule="nonzero" opacity="0.332" stroke="#310024" stroke-linecap="butt" stroke-linejoin="miter" stroke-width="40" vectornator:layerName="path"/>
<path d="M526.62-56.301C306.666-55.342 119.353 82.132 44.32 275.476C25.154 348.584 13.559 424.771 10.864 503.244C11.332 509.343 11.75 515.46 12.423 521.5C11.783 521.826 11.176 522.208 10.537 522.539C10.447 528.212 10.278 533.864 10.278 539.559C10.278 917.965 212.668 1248.83 514.927 1430.62C515.967 1430 517.077 1429.49 518.111 1428.87C523.206 1431.9 528.498 1434.58 533.703 1437.44C842.266 1257.18 1049.72 922.705 1049.72 539.559C1049.72 538.319 1049.66 537.094 1049.65 535.857C1047.72 534.702 1045.89 533.413 1043.94 532.283C1046.19 515.28 1047.37 497.961 1047.97 480.506C1044.44 417.672 1035.4 356.334 1021.2 296.98C951.54 90.791 756.219-57.301 526.62-56.301Z" fill="none" opacity="1" stroke="#310024" stroke-linecap="butt" stroke-linejoin="miter" stroke-width="40" vectornator:layerName="path"/>
<g opacity="1" vectornator:layerName="path">
<use fill="none" opacity="1" stroke="#310024" stroke-linecap="butt" stroke-linejoin="miter" stroke-width="40" vectornator:layerName="path" xlink:href="#Fill_2"/>
<clipPath clip-rule="nonzero" id="ClipPath_2">
<use xlink:href="#Fill_2"/>
</clipPath>
<g clip-path="url(#ClipPath_2)">
<path d="M9.15 465.647C7.9 178.616 239.571-55.083 526.602-56.333C813.633-57.584 1047.33 174.087 1048.58 461.118C1049.83 748.149 818.164 981.847 531.132 983.099C244.1 984.349 10.402 752.679 9.15 465.647Z" fill="url(#LinearGradient_2)" fill-rule="nonzero" opacity="1" stroke="#310024" stroke-linecap="butt" stroke-linejoin="miter" stroke-width="40" vectornator:layerName="path"/>
<path d="M-519.716 543.986C-520.967 256.954-289.296 23.256-2.265 22.005C284.766 20.755 518.466 252.425 519.716 539.456C520.968 826.492 289.296 1060.19 2.264 1061.44C-284.766 1062.69-518.465 831.012-519.716 543.986Z" fill="url(#LinearGradient_3)" fill-rule="nonzero" opacity="1" stroke="#310024" stroke-linecap="butt" stroke-linejoin="miter" stroke-width="40" vectornator:layerName="path"/>
<path d="M168.965 1062.27C167.715 775.235 399.386 541.537 686.417 540.286C973.444 539.035 1207.15 770.706 1208.4 1057.74C1209.65 1344.77 977.984 1578.46 690.948 1579.71C403.915 1580.97 170.217 1349.29 168.965 1062.27Z" fill="url(#LinearGradient_4)" fill-rule="nonzero" opacity="1" stroke="#310024" stroke-linecap="butt" stroke-linejoin="miter" stroke-width="40" vectornator:layerName="path"/>
</g>
</g>
</g>
</g>
<path d="M22 530C22 249.439 249.439 22 530 22C810.561 22 1038 249.439 1038 530C1038 810.561 810.561 1038 530 1038C249.439 1038 22 810.561 22 530Z" fill="none" opacity="1" stroke="#310024" stroke-linecap="butt" stroke-linejoin="miter" stroke-width="40" vectornator:layerName="path"/>
<path d="M303.483 530C303.483 404.898 404.898 303.483 530 303.483C655.102 303.483 756.517 404.898 756.517 530C756.517 655.102 655.102 756.517 530 756.517C404.898 756.517 303.483 655.102 303.483 530Z" fill="url(#LinearGradient_5)" fill-rule="nonzero" opacity="1" stroke="#310024" stroke-linecap="butt" stroke-linejoin="miter" stroke-width="40" vectornator:layerName="path 1"/>
</g>
</svg>
